svgs/wps_office.svg

<svg width="192" height="192" viewBox="0 0 192 192" fill="none" xmlns="http://www.w3.org/2000/svg">
<path d="M22 58V52C19.884 52 17.9245 53.1146 16.8429 54.9333C15.7614 56.752 15.7178 59.0059 16.7283 60.8651L22 58ZM72 150L66.7283 152.865C67.7783 154.797 69.8011 156 72 156C74.1989 156 76.2217 154.797 77.2717 152.865L72 150ZM70 58L75.2717 55.1349C74.2217 53.2029 72.1989 52 70 52V58ZM79.9456 88.8651C81.528 91.7766 85.171 92.8541 88.0825 91.2717C90.994 89.6894 92.0715 86.0464 90.4891 83.1349L79.9456 88.8651ZM127.272 60.8651C128.854 57.9536 127.777 54.3106 124.865 52.7283C121.954 51.1459 118.311 52.2234 116.728 55.1349L127.272 60.8651ZM170 58L175.272 60.8651C176.282 59.0059 176.239 56.752 175.157 54.9333C174.076 53.1146 172.116 52 170 52V58ZM120 150L114.728 152.865C115.778 154.797 117.801 156 120 156C122.199 156 124.222 154.797 125.272 152.865L120 150ZM142 52C138.686 52 136 54.6863 136 58C136 61.3137 138.686 64 142 64V52ZM112.228 123.135C110.646 120.223 107.003 119.146 104.091 120.728C101.18 122.311 100.102 125.954 101.685 128.865L112.228 123.135ZM16.7283 60.8651L66.7283 152.865L77.2717 147.135L27.2717 55.1349L16.7283 60.8651ZM22 64H70V52H22V64ZM64.7283 60.8651L79.9456 88.8651L90.4891 83.1349L75.2717 55.1349L64.7283 60.8651ZM116.728 55.1349L66.7283 147.135L77.2717 152.865L127.272 60.8651L116.728 55.1349ZM164.728 55.1349L114.728 147.135L125.272 152.865L175.272 60.8651L164.728 55.1349ZM170 52H142V64H170V52ZM101.685 128.865L114.728 152.865L125.272 147.135L112.228 123.135L101.685 128.865Z" fill="black"/>
</svg>

<svg xmlns="http://www.w3.org/2000/svg" width="192" height="192" fill="none" xmlns:v="https://vecta.io/nano"><path d="M22 58v-6a6 6 0 0 0-5.272 8.865L22 58zm50 92l-5.272 2.865a6 6 0 0 0 10.543 0L72 150zm-2-92l5.272-2.865A6 6 0 0 0 70 52v6zm9.946 30.865a6 6 0 1 0 10.543-5.73l-10.543 5.73zm47.326-28a6 6 0 1 0-10.544-5.73l10.544 5.73zM170 58l5.272 2.865A6 6 0 0 0 170 52v6zm-50 92l-5.272 2.865a6 6 0 0 0 10.544 0L120 150zm22-98a6 6 0 1 0 0 12V52zm-29.772 71.135a6 6 0 1 0-10.543 5.73l10.543-5.73zm-95.5-62.27l50 92 10.543-5.73-50-92-10.543 5.73zM22 64h48V52H22v12zm42.728-3.135l15.217 28 10.543-5.73-15.217-28-10.543 5.73zm52-5.73l-50 92 10.543 5.73 50-92-10.544-5.73zm48 0l-50 92 10.544 5.73 50-92-10.544-5.73zM170 52h-28v12h28V52zm-68.315 76.865l13.043 24 10.544-5.73-13.044-24-10.543 5.73z" fill="#000"/></svg>
